X: 31922
T: Peacock's Frilocs, The
R: reel
M: 4/4
K: Edorian
EBAG E2ED|EBAG EFGB|A2A^G ABce|dBBA B4|
EBAG EBAG|EBAG E3 G|A^GAB cedc|BAAB E4:|
|:AcBA E2Ac|BAGE FAGF|GEEF GEEF|GFGA B4|
egfe dfed|cBAc B2AB|GEEF GFGA|BAAB E4:|

